!!!!SEGMENT: pl-sa--77-a-ii-17--006_kotowicz--passio-ex-c-moll-qui-passus-est.krn
!!!cenid: 17xx:346
!!!COM: Kotowicz
!!!COM-rismid: pe41024678
!!!CDT:
!!!CNT:
!!!OTL: Passio ex c-moll – Qui passus est
!!!PDT: 1767
!!!AGN:
!!!SMS-siglum: PL-SA
!!!SMS-shelfmark: 77/A II 17
!!!SMS-shelfwork: 001-006 M
!!!NIFC-rismid: 1001077252
!!!URL-scan: http://bc.bdsandomierz.pl/dlibra/publication/1354/edition/1322/content
!!!ONB-nifc: UWAGA: części Passio: Passio Domini nostri, Płaczcie angeli, Aprehendit ergo Pilatus, Coś uczyniło źródło niewinności, Orabat autem Jesus, Qui passus est
**kern	**fba	**kern	**kern	**kern	**text	**kern	**text	**kern	**kern	**kern
*part8	*part8	*part7	*part6	*part5	*part5	*part4	*part4	*part3	*part2	*part1
*staff8	*staff8	*staff7	*staff6	*staff5	*staff5	*staff4	*staff4	*staff3	*staff2	*staff1
*I"Organo	*	*I"Violino Secundo	*I"Violino Primo	*I"Baſso	*	*I"Canto	*	*I"Corno Secundo Ex D#	*I"Corno Primo Ex D#	*I"Oboe
*I'Org.	*	*I'V-no II	*I'V-no I	*I'B.	*	*I'C.	*	*I'C. II	*I'C. I	*I'Ob.
*clefF4	*	*clefG2	*clefG2	*clefF4	*	*clefC1	*	*clefG2	*clefG2	*clefG2
*	*	*	*	*	*	*	*	*ITrd-2c-3	*ITrd-2c-3	*
*k[b-e-a-]	*	*k[b-e-a-]	*k[b-e-a-]	*k[b-e-a-]	*	*k[a-b-e-]	*	*k[b-e-a-]	*k[b-e-a-]	*k[b-e-a-]
*E-:	*	*E-:	*E-:	*E-:	*	*E-:	*	*E-:	*E-:	*E-:
*M3/4	*	*M3/4	*M3/4	*M3/4	*	*M3/4	*	*M3/4	*M3/4	*M3/4
=1	=1	=1	=1	=1	=1	=1	=1	=1	=1	=1
!LO:TX:rj:b:t=Qui Paſsus	!	!LO:TX:rj:b:t=Qui Paſsus	!LO:TX:rj:b:t=Qui Paſsus	!	!	!	!	!	!	!LO:TX:a:B:t=ALL\RIGHT!!!!!
!LO:TX:a:t=Tempo	!	!LO:TX:a:t=Adagio	!LO:TX:a:t=Adagio	!LO:TX:a:t=Adagio	!	!LO:TX:a:t=Adagio	!	!	!	!
4E-\	.	8.e-/L	8.e-/L	4r	.	4r	.	4r	4r	8.e-/L
.	.	16e-/Jk	16e-/Jk	.	.	.	.	.	.	16e-/Jk
4r	.	8.g/L	8.g/L	4r	.	4r	.	4r	4r	8.g/L
.	.	16g/Jk	16g/Jk	.	.	.	.	.	.	16g/Jk
4E-\	.	8.b-/L	8.b-/L	4E-\	Qui	4b-\	Qui	8gg\L	8bb-\L	8dd\L
.	.	.	.	.	.	.	.	8ff\J	8aa-\J	8dd\J
.	.	16b-/Jk	16b-/Jk	.	.	.	.	.	.	.
=2	=2	=2	=2	=2	=2	=2	=2	=2	=2	=2
*2\right	*	*	*	*	*	*2\right	*	*	*2\right	*
2E-\	.	8ee-\	8ee-\	2E-\	paſs-	2ee-\	pa-	8ee-\L	8gg\L	8ee-\
.	.	4e-/ 4G/	4e-/	.	.	.	.	8gg\	8bb-\J	4ee-\
*	*	*	*	*	*	*	*	*	*tremolo	*
.	.	.	.	.	.	.	.	8gg\	8bb-\L	.
.	.	4e-/	4g/	.	.	.	.	8gg\	8bb-\	4gg\
4E-\	.	.	.	4E-\	-us	4ee-\	-ſsus	8gg\	8bb-\	.
.	.	8g/	8b-/	.	.	.	.	8gg\J	8bb-\J	8bb-/
!	!	!	!	!	!	!	!	!LO:LB:g=original	!	!
=3	=3	=3	=3	=3	=3	=3	=3	=3	=3	=3
!	!	!LO:TX:a:t=P:problem:mixed beam takty	!	!	!	!	!	!	!	!
4E-\	6 4	8a-/L	8cc\L	8A-\	paſs-	8cc\	pa-	8aa-\L	8ccc\L	8cc\L
.	.	8g/	8b-\	8G\	-sus	8b-\	.	8gg\J	8bb-\J	8b-\
!	!	!LO:TX:a:t=g	!	!	!	!	!	!	!	!
4E-\	5_ 3_	8b-/	8b-\	8G\	es	4b-\	-sus	4gg\	4bb-\	8b-\
.	.	8gg\	8bb-\	8r	.	.	.	.	.	8bb-\
4r	.	8ee-\	8gg\	8r	.	8r	.	8r	8r	8gg\
.	.	8dd\J	8ee-\J	8F\	pro	8b-\	pro	8gg\	8bb-\	8ee-\J
=4	=4	=4	=4	=4	=4	=4	=4	=4	=4	=4
!	!	!LO:TX:a:t=P:problem:mixed beam takty	!	!	!	!	!	!	!LO:TX:a:t=P:problem:takt zapisany repetycją	!
4E-\	.	8a-/L	8cc\L	8A-\L	no-	8cc\L	no-	8aa-\L	8ccc\Lyy	8cc\L
.	.	8g/	8b-\	8G\J	.	8b-\J	.	8gg\J	8bb-\Jyy	8b-\
4E-\	.	8g/	8b-\	4G\	-bis	4b-\	-bis	4gg\	4bb-\yy	8b-\
.	x	8gg\	8bb-\	.	.	.	.	.	.	8bb-\
4r	.	8ee-\	8gg\	4r	.	4r	.	8r	8ryy	8gg\
.	.	8dd\J	8ee-\J	.	.	.	.	8gg\	8bb-\yy	8ee-\J
!	!	!	!	!LO:LB:g=original	!	!LO:LB:g=original	!	!	!	!
=5	=5	=5	=5	=5	=5	=5	=5	=5	=5	=5
*	*	*	*	*2\right	*	*	*	*	*	*
!	!	!	!	!LO:TX:a:t=t	!	!	!	!	!	!
4BB-/	7_ 4	8.d/L	8.B-/L	2F\	Je-	2dd\	Je-	4ff\	4aa-\	8.b-\L
.	_ 5_	16d/Jk	16B-/Jk	.	.	.	.	.	.	16b-\Jk
4BB-/	.	8.f/L	8.a-/L	.	.	.	.	8ff\L	8aa-\L	8.aa-\L
.	.	.	.	.	.	.	.	8ff\	8aa-\	.
.	.	16f/Jk	16a-/Jk	.	.	.	.	.	.	16aa-\Jk
4BB-/	.	8.d/L	8.f/L	4E-\	-su	4dd\	-su	8ff\	8aa-\	8.ff\L
.	.	.	.	.	.	.	.	8ff\J	8aa-\J	.
.	x	16d/Jk	16f/Jk	.	.	.	.	.	.	16ff\Jk
*	*	*	*	*	*	*	*	*	*Xtremolo	*
!	!	!LO:LB:g=original	!LO:LB:g=original	!	!	!	!	!	!	!
=6	=6	=6	=6	=6	=6	=6	=6	=6	=6	=6
4BB-/	.	8.B-/L	8.d/L	4BB-/	Chri-	4dd\	Chri-	4ff\	4aa-\	8.dd\L
.	.	16d/Jk	16B-/Jk	.	.	.	.	.	.	16b-\Jk
4E-/	.	8.a-/L	8.cc\L	4EE-/	-ste	4ee-\	-ste	4ee-\	4gg\	8.cc\L
.	.	16g/Jk	16cc\Jk	.	.	.	.	.	.	16cc\Jk
4E-/	.	8.f/L	8.b-\L	4r	.	4r	.	4r	4r	8.b-\L
.	.	16g/Jk	16b-\Jk	.	.	.	.	.	.	16b-\Jk
=7	=7	=7	=7	=7	=7	=7	=7	=7	=7	=7
!LO:TX:a:t=2	!	!	!	!LO:TX:a:t=2	!	!	!	!	!	!
!LO:N:vis=0	!	!	!	!LO:N:vis=0	!	!	!	!	!	!
1.r	.	8g\L	8b-\L	1.r	.	8b-\L	JESU	4a-/	4b-/	8b-\L
.	.	8a-\	8cc\	.	.	8cc\	.	.	.	8cc\
.	.	8b-\	8dd\	.	.	8dd\	.	4r	4r	8dd\
.	.	8cc\	8ee-\	.	.	8ee-\	.	.	.	8ee-\
.	.	8dd\	8ff\	.	.	8ff\	.	4r	4r	8ff\
.	.	8ee-\J	8gg\J	.	.	8gg\J	.	.	.	8gg\J
=8	=8	=8	=8	=8	=8	=8	=8	=8	=8	=8
.	.	8ff\L	8aa-\L	.	.	8aa-\L	Christe	4B-/	4B-/	8aa-\L
.	.	8ee-\J	8gg\J	.	.	8gg\J	.	.	.	8gg\J
!	!	!	!	!	!	!	!	!LO:TX:a:t=P:problem:mixed beam	!LO:TX:a:t=P:problem:mixed beam	!
.	.	4ee-\	4gg\	.	.	4gg\	.	8e-/L	8e-/L	4gg\
.	.	.	.	.	.	.	.	8gg\	8bb-\	.
.	.	4r	4r	.	.	4r	.	8ff\	8aa-\	4r
.	.	.	.	.	.	.	.	8ee-\J	8gg\J	.
!	!	!	!	!	!	!	!	!	!LO:LB:g=original	!
=9	=9	=9	=9	=9	=9	=9	=9	=9	=9	=9
8A-X\L	-7_ 5_ 3_	8cc\L	8gg-X\L	4r	.	4r	.	8g/L	8ee-\L	8gg-X\L
8A-\	.	8cc\	8gg-\	.	.	.	.	8g/	8ee-\	8gg-\
!	!	!	!	!LO:SIC:s:=:v:4A-	!	!	!	!	!	!
8A-\	.	8cc\	8gg-\	4An\	Mi-	4gg-X\	Mi-	8e-/	8ee-\	8gg-\
8A-\	x	8cc\	8gg-\	.	.	.	.	8e-/	8ee-\	8gg-\
8A-\	.	8cc\	8gg-\	4A\	-se-	4gg-\	-se-	8e-/	8ee-\	8gg-\
8A-\J	.	8cc\J	8gg-\J	.	.	.	.	8e-/J	8ee-\J	8gg-\J
!LO:LB:g=original	!	!	!	!	!	!LO:LB:g=original	!	!	!	!
=10	=10	=10	=10	=10	=10	=10	=10	=10	=10	=10
!	!	!LO:SIC:o:t:=:v:jedna wykreślona nuta	!LO:SIC:s:=:v:8gg- x6	!LO:SIC:s:=:v:2A	!	!	!	!	!LO:TX:a:t=P:problem:mixed beam	!LO:SIC:s:=:v:8gg- x6
8An\L	.	8cc\L	8gg\L	2A-\	-re-	2gg-X\	-re-	4g/	8ee-\L	8gg\L
8A\	.	8cc\	8gg\	.	.	.	.	.	8ee-\	8gg\
8A\	.	8cc\	8gg\	.	.	.	.	8e-/L	8e-/	8gg\
8A\	.	8cc\	8gg\	.	.	.	.	8e-/	8e-/	8gg\
!	!	!	!	!LO:SIC:s:=:v:4A	!	!	!	!	!	!
8A\	.	8cc\	8gg\	4A-\	-re	4gg-\	-re	8e-/	8e-/	8gg\
8A\J	.	8cc\J	8gg\J	.	.	.	.	8e-/J	8e-/J	8gg\J
!	!	!	!	!	!	!	!	!LO:LB:g=original	!	!
=11	=11	=11	=11	=11	=11	=11	=11	=11	=11	=11
!	!	!LO:TX:a:t=P:problem:mixed beam takty	!LO:TX:a:t=P:problem:mixed beam	!	!	!	!	!	!	!
4B-\	.	(8ee-\L	8gg\L	4B-\	no-	8gg-X\L	no-	4B-/	4b-/	8gg\L
.	.	8dd\)	8ff\	.	.	8ff\J	.	.	.	8ff\
4B-\	.	8dd\	8ff\	4BB-/	-bis	4ff\	-bis	4B-/	4b-/	8ff\
.	.	8b-\	8b-/	.	.	.	.	.	.	8b-\
4r	.	8b-\	8b-/	4r	.	4r	.	4r	4r	8b-\
.	.	8B-/J	8B-/J	.	.	.	.	.	.	8bb-\J
!	!	!LO:LB:g=original	!LO:LB:g=original	!LO:LB:g=original	!	!	!	!	!	!
=12	=12	=12	=12	=12	=12	=12	=12	=12	=12	=12
*	*	*	*	*	*ij	*	*	*	*	*
4BB-/	6 3	4dd\	8ff\L	(4F\	mi-	4dd\	mi-	4b-/	4ff\	8ff\L
.	.	.	8b-\	.	.	.	.	.	.	8b-\
4BB-/	5 3	4ee-\	8ggn\	4G\)	.	4ee-\	.	4ee-/	4gg\	8ggn\
.	.	.	8b-\	.	.	.	.	.	.	8b-\
!	!	!	!	!	!	!	!	!	!LO:TX:a:t=bis	!
4BB-/	7 5	4ff\	8aa-\	4A-X\	se-	4ff\	-se-	4ff/	4aa-\	8aa-\
.	.	.	8b-\J	.	.	.	.	.	.	8b-\J
=13	=13	=13	=13	=13	=13	=13	=13	=13	=13	=13
4BB-/	6 2	4ee-\	8gg\L	4G\	-re-	4ee-\	-re-	4ee-/	4gg\	8gg\L
.	x 4	.	8b-\J	.	.	.	.	.	.	8b-\J
4BB-/	5 3	8dd\L	8ff\L	4F\	-re	4dd\	-re	4b-/	4ff\	8ff\L
.	.	8bb-\	8bb-\	.	.	.	.	.	.	8bb-\
4r	.	8ff\	8ff\	4r	.	4r	.	4r	4r	8ff\
.	.	8dd\J	8dd\J	.	.	.	.	.	.	8dd\J
=14	=14	=14	=14	=14	=14	=14	=14	=14	=14	=14
!	!	!	!	!	!	!	!	!	!LO:TX:a:t=P:problem:takty zapisane repetycją	!
4BB-/	6 3	4dd\	8b-\L	4F\	mi-	4dd\	Mi-	4b-/	4ff\yy	8b-\L
.	.	.	8ff\	.	.	.	.	.	.	8ff\
4BB-/	5 3	4ee-\	8gg\	4G\	.	4ee-\	.	4ee-/	4gg\yy	8gg\
.	.	.	8cc\	.	.	.	.	.	.	8cc\
4BB-/	7 6	4ff\	8aa-\	4A-\	-se-	4ff\	-se-	4ff/	4aa-\yy	8aa-\
.	.	.	8cc\J	.	.	.	.	.	.	8cc\J
=15	=15	=15	=15	=15	=15	=15	=15	=15	=15	=15
!	!	!	!LO:TX:a:t=P:problem:mixed beam	!	!	!	!	!	!	!
4BB-/	6 4	4ee-\	8gg\L	4G\	-re-	4ee-\	-re-	4ee-/	4gg\yy	8gg\L
.	.	.	8b-\	.	.	.	.	.	.	8b-\
4BB-/	5 3	8dd\L	8ff\	4F\	-re	4dd\	-re	4b-/	4ff\yy	8ff\
.	.	8b-\J	8b-\	.	.	.	.	.	.	8b-\
4r	.	8f/L	8f/	4r	.	4r	.	4r	4ryy	8f\
.	.	8B-/J	8B-/J	.	.	.	.	.	.	8bb-\J
*	*	*	*	*	*Xij	*	*	*	*	*
!	!	!	!	!	!	!LO:LB:g=original	!	!	!	!
=16	=16	=16	=16	=16	=16	=16	=16	=16	=16	=16
!	!	!LO:TX:a:t=P:problem:mixed beam takty	!	!	!	!	!	!	!	!
.	.	.	.	.	.	8qdd/	.	.	.	.
8E-\L	6_ 4_	8a-/L	8cc\L	8A-\L	no-	8cc\L	no-	8aa-\L	8ccc\L	8cc\L
8E-\	.	8g/	8b-\	8G\J	.	8b-\J	.	8gg\J	8bb-\J	8b-\
8E-\	.	8g/	8b-\	8F\	-bis	8b-\	-bis	4gg\	4bb-\	8b-\
8E-\	.	8gg\	8bb-\	8r	.	8r	.	.	.	8bb-\
8E-\	.	8ee-\	8gg\	8E-\	mi-	8b-\L	mi-	4r	4r	8gg\
8E-\J	x	8b-\J	8ee-\J	8E-\	-se-	8b-\J	-se-	.	.	8ee-\J
!LO:LB:g=original	!	!	!	!LO:LB:g=original	!	!	!	!	!	!
=17	=17	=17	=17	=17	=17	=17	=17	=17	=17	=17
!	!	!LO:TX:a:t=P:problem:mixed beam takty	!	!	!	!	!	!	!	!
8E-\L	6 4	8a-/L	8cc\L	8A-\L	-re-	(8cc\L	-re-	8aa-\L	8ccc\L	8cc\L
8E-\	.	8g/	8b-\	8G\J	-re	8b-\J)	.	8gg\J	8bb-\J	8b-\
8E-\	5_ 3_	8g/	8b-\	4A-\	.	4b-\	-re	4gg\	4bb-\	8b-\
8E-\	.	8gg\	8bb-\	.	.	.	.	.	.	8bb-\
8E-\	x	8ee-\	8gg\	4r	.	4r	.	4r	4r	8gg\
8E-\J	.	8b-\J	8ee-\J	.	.	.	.	.	.	8ee-\J
!	!	!LO:LB:g=original	!LO:LB:g=original	!	!	!	!	!	!	!
=18	=18	=18	=18	=18	=18	=18	=18	=18	=18	=18
4F\	.	8g/L	8ee-\L	4G\	no-	4ee-\	no-	4ee-\	4gg\	8ee-\L
.	.	8g/	8ee-\	.	.	.	.	.	.	8ee-\
4A-X\	6 5	8a-/	8ff\	4A-\	.	4ff\	.	4ff\	4aa-\	8ff\
.	.	8a-/	8ff\	.	.	.	.	.	.	8ff\
!	!	!	!	!	!	!LO:SIC:o:t:=:v:wykreślony tekst "bis"	!	!	!	!
4B-\	.	8f/	8dd\	4F\	.	4dd\	.	4b-/	4ff\	8dd\
.	.	8f/J	8dd\J	.	.	.	.	.	.	8dd\J
=19	=19	=19	=19	=19	=19	=19	=19	=19	=19	=19
!	!	!LO:TX:a:t=P:problem:mixed beam takty	!	!	!	!	!	!	!	!
4E-\	.	8e-/L	8ee-\L	4G\	-bis.	4ee-\	-bis	4ee-\	4gg\	8ee-\L
.	.	8ee-\	8ee-\	.	.	.	.	.	.	8ee-\
!LO:SIC:o:t:=:v:wykreślona nuta	!	!	!	!	!	!	!	!	!	!
4G\	6_	8ee-\	8ee-\	4E-\	Mi-	4b-\	mi-	4gg\	4bb-\	8ee-\
.	.	8ee-\	8ee-\	.	.	.	.	.	.	8ee-\
4G\	.	8ee-\	8ee-\	4E-\	-se-	4b-\	-se-	4gg\	4bb-\	8ee-\
.	x	8ee-\J	8ee-\J	.	.	.	.	.	.	8ee-\J
=20	=20	=20	=20	=20	=20	=20	=20	=20	=20	=20
*	*	*	*	*	*	*	*	*	*tremolo	*
2.A-\	.	8ee-\L	8ee-\L	2.A-\	-re-	2.cc\	-re-	4aa-\	8ccc\L	8ee-\L
.	.	8ee-\	8ee-\	.	.	.	.	.	8ccc\	8ee-\
.	.	8ee-\	8ee-\	.	.	.	.	8aa-\L	8ccc\	8ee-\
.	.	8ee-\	8ee-\	.	.	.	.	8aa-\J	8ccc\	8ee-\
.	.	8ee-\	8ee-\	.	.	.	.	8aa-\L	8ccc\	8ee-\
.	.	8ee-\J	8ee-\J	.	.	.	.	8aa-\J	8ccc\J	8ee-\J
*	*	*	*	*	*	*	*	*	*Xtremolo	*
!	!	!	!	!	!	!LO:LB:g=original	!	!	!	!
=21	=21	=21	=21	=21	=21	=21	=21	=21	=21	=21
*	*	*2\right	*2\right	*	*	*	*	*2\right	*	*
!	!	!	!	!	!	!	!	!	!	!LO:TX:a:t=problem&colon; poniżej napis Finis Consumatum est
2.E-\	.	2.ee-\	2.ee-;\	2.G;\	-re	2.b-\	-re	2.gg\	2.bb-\	2.ee-;\
==	==	==:||:;	==:||;	==;;	==	==:||;	==	==	==	==
*-	*-	*-	*-	*-	*-	*-	*-	*-	*-	*-
!!!system-decoration: s1[(s2,s3)][(s4,s5)][(s6,s7)]s8
!!!EED: Leszek Kubiak
!!!EST: 2020-12-05
!!!ENC: Andrzej Gręziak
!!!END: 2020-04-29
